X: 23
T: Missa Ferialis / Agnus Dei
N: Derived from Mar1006c-Missa_Ferialis-Agnus.krn
C: Johannes Martini
%%abc-version 2.0
%%abcx-abcm2ps-target-version 5.9.1 (29 Sep 2008)
%%abc-creator hum2abc beta
%%abcx-conversion-date 2019/02/17 07:19:41
%%abc-edited-by Jesse Rodin
%%abc-edited-by Chris Gage 10-02-2014
%%abcx-initial-encoding-date 2014/10/25/
%%humdrum-veritas 2914665661
%%humdrum-veritas-data 300197912
%%linebreak <none>
%%barnumbers 0
L: 1/4
M: 2/1
Q: 1/2=120
%%staves [1 2 3 4]
V: 1 clef=treble
V: 2 clef=treble-8
V: 3 clef=treble-8
V: 4 clef=bass
K: C
[V:1] G8 | 
[V:2] d8 | 
[V:3] G8- | 
[V:4] G,8 | 
[V:1] E8 | 
[V:2] c8 | 
[V:3] G8 | 
[V:4] C,8 | 
[V:1] D4E4- | 
[V:2] d4c2e2- | 
[V:3] G8- | 
[V:4] B,,4C,4- | 
[V:1] E2F2G4 | 
[V:2] e2d2B2c2 | 
[V:3] G8 | 
[V:4] C,2D,2E,4 | 
[V:1] F6A2- | 
[V:2] d4f4 | 
[V:3] A8- | 
[V:4] D,8 | 
[V:1] A2G2F2E2 | 
[V:2] e4d4 | 
[V:3] A8 | 
[V:4] C,4D,4- | 
[V:1] F3EE4- | 
[V:2] z2A4G2 | 
[V:3] A8- | 
[V:4] D,2A,,2C,4 | 
[V:1] E2D2D3C | 
[V:2] F2E2F4 | 
[V:3] A8- | 
[V:4] D,8 | 
[V:1] E4z4 | 
[V:2] E4e4 | 
[V:3] A8 | 
[V:4] A,,4C,4 | 
[V:1] A8- | 
[V:2] f2d4c2 | 
[V:3] z8 | 
[V:4] D,2F,4E,2 | 
[V:1] A8 | 
[V:2] d2f4ed | 
[V:3] z8 | 
[V:4] D,3C,A,,4 | 
[V:1] G6A2 | 
[V:2] e2dcB2c2 | 
[V:3] z8 | 
[V:4] z8 | 
[V:1] B2c2A4- | 
[V:2] d2e2f2d2- | 
[V:3] z8 | 
[V:4] z8 | 
[V:1] A2GFGFED | 
[V:2] dcBAB4 | 
[V:3] z8 | 
[V:4] z8 | 
[V:1] F2E4D2 | 
[V:2] A4G2F2 | 
[V:3] z8 | 
[V:4] A,,4C,2D,2 | 
[V:1] C4B,4 | 
[V:2] E2A4G2 | 
[V:3] z8 | 
[V:4] A,,4E,4 | 
[V:1] E4F2A2- | 
[V:2] c4d4- | 
[V:3] A8- | 
[V:4] A,,4D,4 | 
[V:1] A2GFE4 | 
[V:2] d2B2c4 | 
[V:3] A8- | 
[V:4] F,2G,2A,4 | 
[V:1] D2F2G2A2- | 
[V:2] d4c4 | 
[V:3] A8- | 
[V:4] D,4E,2F,2- | 
[V:1] AGG4^F2 | 
[V:2] d2e2d4 | 
[V:3] A8 | 
[V:4] F,E,C,2D,4 | 
[V:1] G4B4 | 
[V:2] B2e4f2 | 
[V:3] G8- | 
[V:4] E,6D,2 | 
[V:1] c4d4 | 
[V:2] e4d4 | 
[V:3] G8 | 
[V:4] C,4B,,4 | 
[V:1] c4A4- | 
[V:2] e4c4- | 
[V:3] A8 | 
[V:4] A,,4F,4- | 
[V:1] A2G2F3E | 
[V:2] c4d4 | 
[V:3] z4A4 | 
[V:4] F,2E,2D,4 | 
[V:1] E4A4- | 
[V:2] e4f4 | 
[V:3] c4d4 | 
[V:4] A,4D,4 | 
[V:1] A2^G2G3^F | 
[V:2] e8 | 
[V:3] B8 | 
[V:4] E,8 | 
[V:1] A8 | 
[V:2] c4d4 | 
[V:3] A8 | 
[V:4] F,4D,4 | 
[V:1] z8 | 
[V:2] e4A4 | 
[V:3] z4F4 | 
[V:4] C,4D,4 | 
[V:1] z8 | 
[V:2] z8 | 
[V:3] G4F2E2- | 
[V:4] E,4A,,4 | 
[V:1] z8 | 
[V:2] z8 | 
[V:3] E2D2C2B,A, | 
[V:4] C,2D,2E,3F, | 
[V:1] z8 | 
[V:2] z8 | 
[V:3] B,2A,2D2E2- | 
[V:4] G,2A,4G,2- | 
[V:1] z8 | 
[V:2] z8 | 
[V:3] EDD4^C2 | 
[V:4] G,2F,2E,4 | 
[V:1] F8 | 
[V:2] d6c2 | 
[V:3] D8 | 
[V:4] D,2F,3G,A,2 | 
[V:1] G8- | 
[V:2] d2e3fg2- | 
[V:3] z8 | 
[V:4] B,2C4B,A, | 
[V:1] G8 | 
[V:2] gfed^c3B | 
[V:3] z8 | 
[V:4] B,A,G,F,E,4 | 
[V:1] F8 | 
[V:2] d4z4 | 
[V:3] z8 | 
[V:4] D,4z2D,2 | 
[V:1] E8- | 
[V:2] z8 | 
[V:3] z8 | 
[V:4] C,2E,3F,G,2- | 
[V:1] E8 | 
[V:2] z8 | 
[V:3] z8 | 
[V:4] G,F,E,D,^C,3B,, | 
[V:1] D4z2D2 | 
[V:2] f8 | 
[V:3] z8 | 
[V:4] D,8 | 
[V:1] B,2C3DE2- | 
[V:2] g8- | 
[V:3] z8 | 
[V:4] z8 | 
[V:1] EFG2A2d2- | 
[V:2] g4f4 | 
[V:3] z8 | 
[V:4] z8 | 
[V:1] d2^cBc4 | 
[V:2] e8 | 
[V:3] z8 | 
[V:4] z8 | 
[V:1] d4A4- | 
[V:2] d8 | 
[V:3] F8- | 
[V:4] D,8- | 
[V:1] A2G2F4 | 
[V:2] A4B4 | 
[V:3] F8 | 
[V:4] D,8 | 
[V:1] E4D4 | 
[V:2] c4d4 | 
[V:3] G8- | 
[V:4] C,4B,,4 | 
[V:1] G8 | 
[V:2] e4c4 | 
[V:3] G8 | 
[V:4] E,8 | 
[V:1] F4E4 | 
[V:2] d2A4G2 | 
[V:3] A8- | 
[V:4] D,4C,4 | 
[V:1] D4C4 | 
[V:2] F3EE4 | 
[V:3] A8 | 
[V:4] D,4A,,4 | 
[V:1] D8- | 
[V:2] F8 | 
[V:3] A4A4- | 
[V:4] D,8 | 
[V:1] D8 | 
[V:2] D8 | 
[V:3] A2^G^F^G4 | 
[V:4] B,,8 | 
[V:1] C4z4 | 
[V:2] E8 | 
[V:3] A8 | 
[V:4] A,,8 | 
[V:1] A8 | 
[V:2] A2c2d2f2- | 
[V:3] z8 | 
[V:4] z8 | 
[V:1] A8- | 
[V:2] fedcd2cB | 
[V:3] z8 | 
[V:4] z8 | 
[V:1] A4G4 | 
[V:2] A2d2B2c2- | 
[V:3] z8 | 
[V:4] z8 | 
[V:1] A4B4 | 
[V:2] cdefg2e2- | 
[V:3] z8 | 
[V:4] z8 | 
[V:1] G8 | 
[V:2] e2dcB4 | 
[V:3] z8 | 
[V:4] z8 | 
[V:1] A4F2A2- | 
[V:2] A4z4 | 
[V:3] A8 | 
[V:4] A,,2C,2D,2F,2- | 
[V:1] AGFEF2ED | 
[V:2] z8 | 
[V:3] A8- | 
[V:4] F,E,D,C,D,2C,B,, | 
[V:1] C2F2D2E2- | 
[V:2] z8 | 
[V:3] A4G4 | 
[V:4] A,,2D,2B,,2C,2- | 
[V:1] E2DCB,2E2- | 
[V:2] z8 | 
[V:3] A4B4 | 
[V:4] C,D,E,F,G,2E,2- | 
[V:1] EFG3AB2 | 
[V:2] e4d4 | 
[V:3] G8 | 
[V:4] E,2D,C,B,,4 | 
[V:1] c2A4G2 | 
[V:2] c2f4e2- | 
[V:3] A8- | 
[V:4] A,,2D,3A,,C,2 | 
[V:1] F4E4 | 
[V:2] e2d2e4 | 
[V:3] A8 | 
[V:4] D,4C,2A,,2- | 
[V:1] z2A4G2 | 
[V:2] A4z2e2- | 
[V:3] c4B4 | 
[V:4] A,,2A,,2E,4 | 
[V:1] A2G2c2B2- | 
[V:2] e2c2A2B2 | 
[V:3] c2e4d2 | 
[V:4] A,,2C,4G,2 | 
[V:1] BAA4^G2 | 
[V:2] c2d2e4 | 
[V:3] c2A2B4 | 
[V:4] A,2F,2E,4 | 
[V:1] A8 ||  
[V:2] e8 ||  
[V:3] A8 ||  
[V:4] A,,8 ||  
[V:1]  [K:C] [K:clef=treble][M:2/1]G8- | 
[V:2]  [K:C] [K:clef=treble-8][M:2/1]G4c4 | 
[V:3]  [K:C] [K:clef=treble-8][M:2/1]z8 | 
[V:4]  [K:C] [K:clef=bass][M:2/1]z8 | 
[V:1] G8 | 
[V:2] B2c3de2- | 
[V:3] z8 | 
[V:4] z8 | 
[V:1] G8 | 
[V:2] e2dcB4 | 
[V:3] z8 | 
[V:4] z8 | 
[V:1] A8- | 
[V:2] A4c3d | 
[V:3] z4A4- | 
[V:4] z8 | 
[V:1] A8 | 
[V:2] e2f4e2 | 
[V:3] A2F3GA2 | 
[V:4] z8 | 
[V:1] z4A4- | 
[V:2] d2cBA4 | 
[V:3] D6E2 | 
[V:4] z8 | 
[V:1] A2B2c4 | 
[V:2] z8 | 
[V:3] F2G2E2A2- | 
[V:4] z8 | 
[V:1] B4A2d2- | 
[V:2] z8 | 
[V:3] A2G2F2D2 | 
[V:4] z8 | 
[V:1] dcA2G2B2- | 
[V:2] z8 | 
[V:3] F4E4 | 
[V:4] z8 | 
[V:1] BAA4^G2 | 
[V:2] z8 | 
[V:3] D2C2B,4 | 
[V:4] z8 | 
[V:1] A8- | 
[V:2] z8 | 
[V:3] z8 | 
[V:4] A,,6B,,2 | 
[V:1] A8 | 
[V:2] z8 | 
[V:3] z8 | 
[V:4] C,4D,2F,2- | 
[V:1] z8 | 
[V:2] A6B2 | 
[V:3] z8 | 
[V:4] F,2E,2F,2G,2 | 
[V:1] z8 | 
[V:2] c4d2f2- | 
[V:3] z8 | 
[V:4] E,4z2D,2- | 
[V:1] z8 | 
[V:2] f2e2f3g | 
[V:3] z8 | 
[V:4] D,2C,2A,,2D,2- | 
[V:1] z8 | 
[V:2] e4z2d2- | 
[V:3] z8 | 
[V:4] D,2C,2D,2F,2- | 
[V:1] z8 | 
[V:2] d2c2A2d2- | 
[V:3] z8 | 
[V:4] F,G,A,4F,2 | 
[V:1] z8 | 
[V:2] d2^c2d4 | 
[V:3] z8 | 
[V:4] E,4D,4 | 
[V:1] D4F4- | 
[V:2] z8 | 
[V:3] z4D4 | 
[V:4] F,6G,2 | 
[V:1] F2G2A4- | 
[V:2] d4f4- | 
[V:3] F6G2 | 
[V:4] A,6F,2- | 
[V:1] A2F4D2 | 
[V:2] f2g2a4- | 
[V:3] A6F2- | 
[V:4] F,2D,2D,4 | 
[V:1] D4z4 | 
[V:2] a2f4d2 | 
[V:3] F2D2D4 | 
[V:4] z4A,4 | 
[V:1] A4B4 | 
[V:2] d4z4 | 
[V:3] z2d4e2 | 
[V:4] F,4G,4 | 
[V:1] A2d4^c2 | 
[V:2] a8 | 
[V:3] f4e4 | 
[V:4] D,4A,4 | 
[V:1] d3cA4 | 
[V:2] f6d2 | 
[V:3] d8 | 
[V:4] D,8 | 
[V:1] G2A2F2E2- | 
[V:2] e2f2d2c2- | 
[V:3] z8 | 
[V:4] z8 | 
[V:1] EFG2A2B2 | 
[V:2] c2B2c2d2 | 
[V:3] z8 | 
[V:4] z8 | 
[V:1] c2d3cBA | 
[V:2] e2f3edc | 
[V:3] z8 | 
[V:4] z8 | 
[V:1] B2A4^G2 | 
[V:2] d2A2B4 | 
[V:3] z8 | 
[V:4] z8 | 
[V:1] A8 | 
[V:2] A8 | 
[V:3] z8 | 
[V:4] D,4F,4 | 
[V:1] z8 | 
[V:2] z8 | 
[V:3] G8- | 
[V:4] E,2C,3D,E,2- | 
[V:1] z8 | 
[V:2] z8 | 
[V:3] G8 | 
[V:4] E,D,C,2B,,4 | 
[V:1] z8 | 
[V:2] z8 | 
[V:3] A8 | 
[V:4] [M:2/1](3:2:5A,,3B,,C,2D,4C,2 | 
[V:1] z8 | 
[V:2] z8 | 
[V:3] F8 | 
[V:4] (3D,2A,,2D,2D,2(3:2:2E,F,2 | 
[V:1] z8 | 
[V:2] z8 | 
[V:3] G8 | 
[V:4] (3:2:4E,4D,2C,2B,,4 | 
[V:1] z8 | 
[V:2] e4f3e | 
[V:3] A8 | 
[V:4] [M:2/1]A,,4D,4 | 
[V:1] G8- | 
[V:2] c2e4d2 | 
[V:3] z8 | 
[V:4] E,2C,4B,,2 | 
[V:1] G8 | 
[V:2] e2dcB4 | 
[V:3] z8 | 
[V:4] C,2D,2E,4 | 
[V:1] A8 | 
[V:2] [M:2/1](3:2:5A3Bc2d4c2 | 
[V:3] z8 | 
[V:4] z8 | 
[V:1] B8 | 
[V:2] (3d2G2d2(3d2e2f2 | 
[V:3] z8 | 
[V:4] z8 | 
[V:1] G8 | 
[V:2] (3:2:4e4d2c2B4 | 
[V:3] z8 | 
[V:4] z8 | 
[V:1] A8 | 
[V:2] [M:2/1]A4z4 | 
[V:3] c4B2A2- | 
[V:4] A,,2C,2D,2F,2- | 
[V:1] z8 | 
[V:2] c8 | 
[V:3] A2GFG4 | 
[V:4] F,2E,D,E,4 | 
[V:1] A4d4 | 
[V:2] d8 | 
[V:3] F2A4B2- | 
[V:4] D,2F,4G,2 | 
[V:1] c2A2B4 | 
[V:2] e8 | 
[V:3] BAA4^G2 | 
[V:4] E,2A,2E,4 | 
[V:1] A4z2D2- | 
[V:2] f8 | 
[V:3] A2F4D2- | 
[V:4] z2D,3E,F,2- | 
[V:1] DEF2GFED | 
[V:2] d8 | 
[V:3] D2A4^G2 | 
[V:4] F,E,D,C,B,,4 | 
[V:1] C2A,2C3D | 
[V:2] e8- | 
[V:3] A2c3de2 | 
[V:4] A,,4z2A,,2 | 
[V:1] E2A,2z2A2 | 
[V:2] e8 | 
[V:3] A2z2c4 | 
[V:4] C,3D,E,2F,2 | 
[V:1] B2c4BA | 
[V:2] z8 | 
[V:3] B2A2c4 | 
[V:4] G,2A,4G,F, | 
[V:1] G2A4G2 | 
[V:2] z8 | 
[V:3] B2c4G2 | 
[V:4] E,2A,,2A,2B,2 | 
[V:1] E2A4^G2 | 
[V:2] z8 | 
[V:3] A4E4 | 
[V:4] C4B,4 | 
[V:1] A4G2E2- | 
[V:2] z8 | 
[V:3] z2A2B2c2- | 
[V:4] A,3G,E,4 | 
[V:1] EFG3FED | 
[V:2] z8 | 
[V:3] c2BAG2A2- | 
[V:4] C,3D,E,2A,,2 | 
[V:1] C2E3DC2 | 
[V:2] z8 | 
[V:3] A2GFE2A2- | 
[V:4] A,,4z4 | 
[V:1] B,4A,4 | 
[V:2] z8 | 
[V:3] A2^G2A4 | 
[V:4] z4A,,3B,, | 
[V:1] E8- | 
[V:2] z8 | 
[V:3] G2E3FG2- | 
[V:4] C,3D,E,3F, | 
[V:1] E8- | 
[V:2] B4c4 | 
[V:3] GFEDC2E2- | 
[V:4] G,3F,E,D,C,2- | 
[V:1] E8- | 
[V:2] A4B4 | 
[V:3] EDC2B,4 | 
[V:4] C,B,,A,,4^G,,2 | 
[V:1] E8 | 
[V:2] c4B4 | 
[V:3] A,2A4^G2 | 
[V:4] A,,4E,4 | 
[V:1] F8 | 
[V:2] A8- | 
[V:3] A8- | 
[V:4] A,,8- | 
[V:1] E8 ||  
[V:2] A8 ||  
[V:3] A8 ||  
[V:4] A,,8 ||  
[V:1]  [K:C] [K:clef=treble][M:2/1]z8 | 
[V:2]  [K:C] [K:clef=treble-8][M:2/1]G4A4- | 
[V:3]  [K:C] [K:clef=treble-8][M:2/1]z8 | 
[V:4]  [K:C] [K:clef=bass][M:2/1]z8 | 
[V:1] z8 | 
[V:2] A2G2F4 | 
[V:3] z8 | 
[V:4] z8 | 
[V:1] G4A4- | 
[V:2] E4D2F2- | 
[V:3] z8 | 
[V:4] z8 | 
[V:1] A2G2F4 | 
[V:2] F2G2A2d2- | 
[V:3] z8 | 
[V:4] z8 | 
[V:1] E4D2F2- | 
[V:2] d2^c2d4- | 
[V:3] z8 | 
[V:4] z8 | 
[V:1] F2G2A4 | 
[V:2] d2e2f4 | 
[V:3] z8 | 
[V:4] z8 | 
[V:1] B2d2c2B2- | 
[V:2] d4e4 | 
[V:3] z8 | 
[V:4] z8 | 
[V:1] BAA4^G2 | 
[V:2] d2c2B4 | 
[V:3] z8 | 
[V:4] z8 | 
[V:1] A4d4 | 
[V:2] A8 | 
[V:3] A8 | 
[V:4] D,8 | 
[V:1] c4B2A2- | 
[V:2] z4F4 | 
[V:3] A8 | 
[V:4] A,,4D,4- | 
[V:1] A2GFE4 | 
[V:2] D4E4 | 
[V:3] A8 | 
[V:4] D,4C,4 | 
[V:1] D4E4- | 
[V:2] F4G4 | 
[V:3] B4c4- | 
[V:4] D,4C,4 | 
[V:1] E2D2C4 | 
[V:2] A4e4- | 
[V:3] c2B2A4- | 
[V:4] A,,8 | 
[V:1] B,8 | 
[V:2] e2g3fed | 
[V:3] A4^G4 | 
[V:4] E,8 | 
[V:1] A,4A4 | 
[V:2] c4z4 | 
[V:3] A4c4 | 
[V:4] F,4A,4 | 
[V:1] B4c4- | 
[V:2] g8 | 
[V:3] d4e4 | 
[V:4] G,4E,4 | 
[V:1] c2B2A4- | 
[V:2] f4d4 | 
[V:3] A8 | 
[V:4] F,8 | 
[V:1] A4^G4 | 
[V:2] e8 | 
[V:3] B8 | 
[V:4] E,8 | 
[V:1] A6GF | 
[V:2] e4c4- | 
[V:3] A8- | 
[V:4] A,,8 | 
[V:1] E8 | 
[V:2] c2B2c4 | 
[V:3] A8 | 
[V:4] z4A,,4 | 
[V:1] z4E4 | 
[V:2] d4c4 | 
[V:3] G8- | 
[V:4] B,,4C,4 | 
[V:1] D2C4B,A, | 
[V:2] d2e3fg2- | 
[V:3] G8- | 
[V:4] B,,2C,3D,E,2- | 
[V:1] B,3CD4 | 
[V:2] gfedd4- | 
[V:3] G8- | 
[V:4] E,F,G,3A,B,2- | 
[V:1] E4G4 | 
[V:2] d2^c2^c3B | 
[V:3] G8 | 
[V:4] B,A,G,F,E,4 | 
[V:1] F6G2 | 
[V:2] d6c2 | 
[V:3] A8- | 
[V:4] D,2F,4E,2 | 
[V:1] A2B2c4 | 
[V:2] d4e4 | 
[V:3] A8 | 
[V:4] D,3C,A,,4 | 
[V:1] F4G2A2- | 
[V:2] d4c4- | 
[V:3] z8 | 
[V:4] D,4E,2F,2- | 
[V:1] A2G4^F2 | 
[V:2] c2B2A4 | 
[V:3] z8 | 
[V:4] F,2G,2D,4 | 
[V:1] G8 | 
[V:2] G4z4 | 
[V:3] G8 | 
[V:4] E,4G,4- | 
[V:1] E4F4 | 
[V:2] z8 | 
[V:3] A8 | 
[V:4] G,4F,4 | 
[V:1] D4d4- | 
[V:2] g4f2d2- | 
[V:3] B8 | 
[V:4] G,4D,4 | 
[V:1] d2cBcBAG | 
[V:2] d2e2c3B | 
[V:3] G8 | 
[V:4] E,8 | 
[V:1] F2A3Bc2- | 
[V:2] d4e4- | 
[V:3] A8- | 
[V:4] D,4C,2A,,2- | 
[V:1] cBAG^F3E | 
[V:2] e4d4 | 
[V:3] A8 | 
[V:4] A,,B,,C,2D,4 | 
[V:1] G8- | 
[V:2] B6c2 | 
[V:3] G8- | 
[V:4] G,,8- | 
[V:1] G8 |]  
[V:2] d8 |]  
[V:3] G8 |]  
[V:4] G,,8 |]  



